!!!!SEGMENT: pl-wtm--r-730-42-43-m--001_moniuszko-stanislaw--switezianka-jakiz-to-chlopiec.krn
!!!cenid: 18xx:1722
!!!COM: Moniuszko, Stanisław
!!!COM-rismid: pe30008351
!!!CDT: 1819/05/05-1872/06/04
!!!CNT: Polish
!!!OTL: Świtezianka
!!!PDT:
!!!AGN: Secular
!!!SMS-siglum: PL-Wtm
!!!SMS-shelfmark: R 730/42-43/M
!!!SMS-shelfwork: 001 W
!!!SMS-variant:
!!!SMS-altvar:
!!!NIFC-rismid: 1001099888
!!!URL-scan: http://repozytorium.nifc.pl/skany/pl-wtm-nut--r730m-1-43
!!!ONB-nifc: Skan 0045 (tylko), No. 788 (incpl.)
!!!key:
**kern	**kern	**dynam	**kern	**text
*part2	*part2	*part2	*part1	*part1
*staff3	*staff2	*	*staff1	*staff1
*Iforte	*Iempty	*	*Ivox	*
*I"[Fortepian]	*	*	*I"[Głos]	*
*I'pf	*	*	*I'V	*
*clefF4	*clefG2	*	*clefG2	*
*	*ok[f#cc#]	*	*ok[f#cc#]	*
*k[f#c#]	*k[f#c#]	*	*k[f#c#]	*
*b:	*b:	*	*b:	*
*M6/4	*M6/4	*	*M6/4	*
=1	=1	=1	=1	=1
!LO:TX:t=P:problem=4\right or left&colon; global	!LO:TX:t=P:problem=4\right or left&colon; global	!	!LO:TX:t=P:problem=8\ 16\right&colon; global	!
2.BBB/ 2.BB	1.r	p	1.r	.
(2DD/ 2D	.	.	.	.
4CC#/) 4C#	.	.	.	.
=2	=2	=2	=2	=2
2.BBB/ 2.BB	1.r	.	1.r	.
*2\right	*	*	*	*
(2F#\	.	.	.	.
4D\)	.	.	.	.
=3	=3	=3	=3	=3
(2B\	1.r	.	1.r	.
4F#\)	.	.	.	.
(4d\	.	.	.	.
4B\	.	.	.	.
4A\)	.	.	.	.
=4	=4	=4	=4	=4
*^	*^	*	*	*
*	*	*	*2\right	*	*	*
2.B/	2.G\	2.d/ 2.g	2.d\	p	1.r	.
[2.cn^/	2.F#\	(<2b/	2.d#X\	.	.	.
.	.	4a/)	.	.	.	.
=5	=5	=5	=5	=5	=5	=5
2.c/]	2.E\	2.g/	2.e\	.	1.r	.
2.c#X^/	2.AA#X\ 2.F#	(2f#/	2.rFyy	.	.	.
.	.	4e/)	.	.	.	.
*	*	*v	*v	*	*	*
=6	=6	=6	=6	=6	=6
*	*^	*	*	*	*
2.B/	2.F#\	[<1.BB	(4d/	.	1.r	.
.	.	.	4c#/	.	.	.
.	.	.	4d/)	.	.	.
4c#/	2.E\ 2.G	.	(4e/	.	.	.
4B/	.	.	4d/	.	.	.
4c#/	.	.	4e/)	.	.	.
*	*v	*v	*	*	*	*
!!LO:LB:g=original
=7	=7	=7	=7	=7	=7
*	*	*^	*	*	*
!	!LO:TX:t=P:problem=brak zakończenia łuku	!	!	!	!	!
[1.F#	2.BB\]	2.f#/	2.d\	.	4f#/	Ja-
.	.	.	.	.	4f#/	-kiż
.	.	.	.	.	4f#/	to
.	(2.AA#X\	(<2f#/	2.c#\	.	2f#/	chło-
.	.	4e/)	.	.	4f#/	-piec
=8	=8	=8	=8	=8	=8	=8
1.F#]	2.BB\)	2.d/	2.B\	.	4f#/	pię-
.	.	.	.	.	4f#/	-kny
.	.	.	.	.	4f#/	i
!	!	!LO:N:vis=2.	!	!	!	!
.	2.AA#X\	(<2f#/	2.c#\	.	2f#/	mło-
.	.	4e/)	.	.	4f#/	-dy?
=9	=9	=9	=9	=9	=9	=9
2.D#X/	2.GG##X\	1.f#	2.B#X\	.	4f#/	ja-
.	.	.	.	.	4f#/	-ka
.	.	.	.	.	4f#/	to
2.E/	2.AA#X\	.	2.c#\	.	4f#/	o-
.	.	.	.	.	4f#/	-bok
.	.	.	.	.	4f#/	dzie-
=10	=10	=10	=10	=10	=10	=10
(2.D/	2.BB\	4f#/	2.B\	.	2.f#/	-wi-
.	.	4f#/	.	.	.	.
.	.	4f#/	.	.	.	.
4C#/)	(>4FF#\	2.f#/	(>4A#X\	.	4f#/	-ca?
4r	4GG#X\	.	4B\	.	4r	.
4r	4AA#X\)	.	4c#\)	.	4r	.
=11	=11	=11	=11	=11	=11	=11
[1.F#	2.BB\	2.d/	2.B\	.	4f#/	Brze-
.	.	.	.	.	4f#/	-ga-
.	.	.	.	.	4f#/	-mi
.	2.AA#X\	2f#/	2.c#\	.	2f#/	si-
.	.	4e/	.	.	4f#/	-néj
=12	=12	=12	=12	=12	=12	=12
1.F#]	2.BB\	2.d/	2.B\	.	4f#/	Świ-
.	.	.	.	.	4f#/	-te-
.	.	.	.	.	4f#/	-ziu
.	2.AA#X\	(<2f#/	2.c#\	.	2f#/	wo-
.	.	4e/)	.	.	4f#/	-dy
=13	=13	=13	=13	=13	=13	=13
[<2.F#/	1.BB	[2.d/	[2.B\	.	4f#/	i-
.	.	.	.	.	4f#/	-dą
.	.	.	.	.	4f#/	przy
!	!	!LO:N:vis=2.	!	!	!	!
!	!	!LO:N:vis=2.	!	!	!	!
2F#/]	.	2d/]	2B\]	.	4b/	świe-
.	.	.	.	.	4d/	-tle
4E/ 4G	.	4e/	4c#\	.	4e/	księ-
!!LO:LB:g=original
=14	=14	=14	=14	=14	=14	=14
[1.F#	2.BB\	[1.f#	2.d\	.	[>2.f#/	-ży-
.	(>4AA#X\	.	4c#\	.	2f#/]	.
.	4GG##X\	.	4B#X\	.	.	.
.	4AA#\)	.	4c#\	.	4e/	-ca.
=15	=15	=15	=15	=15	=15	=15
2.F#/]	2.BB\	1.f#]	2.d#X\	.	4d#X/	O-
.	.	.	.	.	4d#/	-na
.	.	.	.	.	4d#/	mu
(<2A#X/	2.FF#\	.	2.c#\	.	2f#/	z_ko-
4G#X/)	.	.	.	.	4e/	-sza
=16	=16	=16	=16	=16	=16	=16
[1.F#	2.BB\	2.d#X/	2.d#\	.	4d#X/	da-
.	.	.	.	.	4d#/	-je
.	.	.	.	.	4d#/	ma-
.	2.AA#X\	(2f#/	2.c#\	.	2f#/	-li-
.	.	4e/)	.	.	4f#/	-ny,
=17	=17	=17	=17	=17	=17	=17
!	!	!LO:N:vis=1.	!	!	!	!
2.F#/]	2.BB\	2.d#X/	1.B	.	4f#/	a
.	.	.	.	.	4e#X/	on
.	.	.	.	.	4f#/	jéj
2.G#X/	2.EE\	2.e/	.	.	4a#X/	kwia-
.	.	.	.	.	4g#X/	-tki
!	!	!	!	!	!LO:SIC:s:v=4en	!
.	.	.	.	.	4e#/	do
*	*	*v	*v	*	*	*
=18	=18	=18	=18	=18	=18
4F#/	2.FF#\	((2.A#X/ 2.c#	.	2.c#/	wian-
4F#/	.	.	.	.	.
4F#/	.	.	.	.	.
2F#/	(>4BB\	2B/)) 2d#X	.	4d#X/	-ka;
.	4FF#\	.	.	4r	.
4r	4EE\)	4r	.	4r	.
=19	=19	=19	=19	=19	=19
*	*^	*	*	*	*
[2.A#X/ 2.F##X	2.ryy	2.DD#X\	2.d#X/	.	4d#X/	pew-
.	.	.	.	.	4d#/	-nie
.	.	.	.	.	4d#/	Ko-
!	!LO:TX:t=P:problem=kasownik i krzyżyk	!	!	!	!	!
2.A#/]	2.Fn#X\	2.CC#\	2.e/	.	2f#/	-chan-
.	.	.	.	.	4e/	-kiem
=20	=20	=20	=20	=20	=20	=20
2.B/	2.F#\	[<1.BBB	2.d#X/	.	4d#X/	jest
.	.	.	.	.	4d#/	tej
.	.	.	.	.	4d#/	dziew-
2.c#/	2.A#X\	.	(2f#/	.	2f#/	-czy-
.	.	.	4e/)	.	4f#/	-ny,
*	*v	*v	*	*	*	*
!!LO:PB:g=original
=21	=21	=21	=21	=21	=21
*	*	*^	*	*	*
[2.F#/	1.BBB_ [>1.BB	[2.d/	[2.B\	.	4f#/	pew-
.	.	.	.	.	4f#/	-nie
.	.	.	.	.	4f#/	to
2F#/]	.	2d/]	2B\]	.	4b/	je-
.	.	.	.	.	4dn/	-go
4E/ 4G	.	4e/	4c#\	.	4e/	ko-
=22	=22	=22	=22	=22	=22	=22
[2.F#/	2.BBB\] 2.BB]	2.f#/	2.d\	.	2.f#/	-chank-
4F#/]	((2DD\ 2D	4f#/	4d\	.	4B/	-ka.
4rAyy	.	4r	4rAyy	.	4r	.
4rAyy	4CC#\)) 4C#	4r	4rAyy	.	4r	.
*v	*v	*	*	*	*	*
*	*v	*v	*	*	*
=23	=23	=23	=23	=23
2.BBB\ 2.BB	1.r	.	1.r	.
(2F#\	.	.	.	.
4D\)	.	.	.	.
=24	=24	=24	=24	=24
(2B\	1.r	.	1.r	.
4F#\)	.	.	.	.
4d\	.	.	.	.
4B\	.	.	.	.
4A\	.	p	.	.
=25	=25	=25	=25	=25
*	*^	*	*	*
2.G\ 2.B	2.g/	[1.d	.	4d/	Każ-
.	.	.	.	4d/	-dą
.	.	.	.	4d/	noc
2.F#\ 2.c#	(<2b/	.	.	2d/	pra-
.	4a/)	.	.	4d/	-wie
=26	=26	=26	=26	=26	=26
2.G\ 2.B	2.g/	1.d_	.	4d/	o
.	.	.	.	4d/	jed-
.	.	.	.	4d/	-nej
2.F#\ 2.c#	(<2b/	.	.	2d/	po-
.	4a/)	.	.	4d/	-rze
=27	=27	=27	=27	=27	=27
2.G\ [2.B	1.g	1.d_	.	4d/	pod
.	.	.	.	4d/	tym
.	.	.	.	4d/	się
2.E#X\ 2.B_	.	.	.	4d/	wi-
.	.	.	.	4d/	-dzą
.	.	.	.	4d/	mo-
=28	=28	=28	=28	=28	=28
2.F#\ 2.B]	2.d/ 2.f#	1.d_	.	2.d/	-drze-
2.D\ 2.F# 2.c#	2.a/	.	.	4d/	-wiem;
.	.	.	.	4r	.
.	.	.	.	4r	.
=29	=29	=29	=29	=29	=29
2.G\ [2.B	2.g/	2.d\]	.	4d/	mło-
.	.	.	.	4d/	-dy
.	.	.	.	4d/	jest
2.F#\ 2.B_	(<2b/	2.d#X\	.	2d#X/	strzel-
.	4a/)	.	.	4d#/	-cem
!!LO:LB:g=original
=30	=30	=30	=30	=30	=30
2.E\ 2.B]	2.g/	2.e\	.	4e/	w_tu-
.	.	.	.	4e/	-tej-
.	.	.	.	4e/	-szym
!	!	!LO:N:vis=2	!	!	!
2.AA#X\ [2.F#	(<2f#/	2.c#\	.	2f#/	bo-
.	4e/)	.	.	4f#/	-rze:
=31	=31	=31	=31	=31	=31
*^	*	*	*	*	*
2.F#/_	[1.BB	[2.d/	[2.B\	.	4f#/	kto
.	.	.	.	.	4f#/	jest
.	.	.	.	.	4f#/	dziew-
2F#/]	.	(2d/]	(2B\]	.	4b/	-czy-
.	.	.	.	.	4d/	-na?
4E/ 4G	.	4e/)	4c#\)	.	4e/	ja
=32	=32	=32	=32	=32	=32	=32
[1.F#	1.BB_	(<4f#X/	[1.d	.	2.f#/	nie
.	.	4e#X/	.	.	.	.
.	.	4f#/	.	.	.	.
.	.	4b/	.	.	4B/	wiem.
.	.	4dd/	.	.	4r	.
.	.	4ff#/	.	.	4r	.
=33	=33	=33	=33	=33	=33	=33
1.F#_	1.BB_	[1.bb)	(>4d\]	.	1.r	.
.	.	.	4c#\	.	.	.
.	.	.	4d\	.	.	.
.	.	.	4f#\	.	.	.
.	.	.	4b\	.	.	.
.	.	.	4dd\)	.	.	.
=34	=34	=34	=34	=34	=34	=34
N(<4F#/]	1.BB_	[1.ff# 1.bb_	2.ryy	.	1.r	.
4E#X/	.	.	.	.	.	.
4F#/	.	.	.	.	.	.
2.ryy	.	.	4B/	.	.	.
.	.	.	4d/	.	.	.
.	.	.	4f#/	.	.	.
*v	*v	*	*	*	*	*
*	*v	*v	*	*	*
=35	=35	=35	=35	=35
(4BB/]	[1.bN) 1.ff#_ 1.bb_	.	1.r	.
4AA#X/	.	.	.	.
4BB/	.	.	.	.
4D/	.	.	.	.
4F#/	.	.	.	.
4B/)	.	.	.	.
=36||	=36||	=36||	=36||	=36||
*M4/4	*M4/4	*	*M4/4	*
*met(c)	*met(c)	*	*met(c)	*
!	!LO:TX:a:t=Agitato.	!	!	!
4.d\	4.b\] 4.ff#] 4.bb]	f	2r	.
8d#X\	8b\ 8ff# 8aa	.	.	.
8e'\L	8b'\L 8ee 8gg	.	4r	.
8B'\J	8b'\J 8dd 8ff#	.	.	.
4r	4r	.	8r	.
.	.	.	8f#/	.
!!LO:LB:g=original
=37	=37	=37	=37	=37
1r	1r	.	4.b/	.
.	.	.	8f#/	.
.	.	.	8.dd\	.
.	.	.	16dd\	.
.	.	.	8dd\	.
.	.	.	16cc#\	.
.	.	.	16b\	.
=38	=38	=38	=38	=38
*^	*	*	*	*
[1G	[1C#	[1e [1a	p	4a\	.
.	.	.	.	4a\	.
.	.	.	.	4r	.
.	.	.	.	4e/	.
=39	=39	=39	=39	=39	=39
2G/]	1C#]	1e] 1a]	.	4.g/	.
.	.	.	.	8g/	.
2E/	.	.	.	4b/	.
.	.	.	.	8a/	.
.	.	.	.	8g/	.
*v	*v	*	*	*	*
!!LO:PB:g=original
=|	=|	=|	=|	=|
*-	*-	*-	*-	*-
!!!system-decoration: s1{(s2,s3)}
!!!RDF**kern: < = below
!!!RDF**kern: > = above
!!!RDF**kern: N = linked
!!!AIN: 1 forte 1 vox
!!!ENC: Marta Chmielewska
!!!END: 2021-04-21
!!!ENC: Marcin Jachim
!!!END: 2021-04-02
